icons/svg/seamark_big/small_craft_facility_electricity.svg

<?xml version="1.0" encoding="UTF-8" standalone="no"?>
<svg
   xmlns:dc="http://purl.org/dc/elements/1.1/"
   xmlns:cc="http://creativecommons.org/ns#"
   xmlns:rdf="http://www.w3.org/1999/02/22-rdf-syntax-ns#"
   xmlns:svg="http://www.w3.org/2000/svg"
   xmlns="http://www.w3.org/2000/svg"
   xmlns:sodipodi="http://sodipodi.sourceforge.net/DTD/sodipodi-0.dtd"
   xmlns:inkscape="http://www.inkscape.org/namespaces/inkscape"
   width="1060"
   height="1060"
   id="svg2"
   version="1.1"
   inkscape:version="0.48.4 r9939"
   sodipodi:docname="small_craft_facility_electricity.svg">
  <defs
     id="defs13">
    <marker
       inkscape:stockid="TriangleOutM"
       orient="auto"
       refY="0.0"
       refX="0.0"
       id="TriangleOutM"
       style="overflow:visible">
      <path
         id="path4014"
         d="M 5.77,0.0 L -2.88,5.0 L -2.88,-5.0 L 5.77,0.0 z "
         style="fill-rule:evenodd;stroke:#000000;stroke-width:1.0pt"
         transform="scale(0.4)" />
    </marker>
    <marker
       inkscape:stockid="TriangleOutS"
       orient="auto"
       refY="0.0"
       refX="0.0"
       id="TriangleOutS"
       style="overflow:visible">
      <path
         id="path4017"
         d="M 5.77,0.0 L -2.88,5.0 L -2.88,-5.0 L 5.77,0.0 z "
         style="fill-rule:evenodd;stroke:#000000;stroke-width:1.0pt"
         transform="scale(0.2)" />
    </marker>
    <marker
       inkscape:stockid="Arrow2Send"
       orient="auto"
       refY="0.0"
       refX="0.0"
       id="Arrow2Send"
       style="overflow:visible;">
      <path
         id="path3902"
         style="fill-rule:evenodd;stroke-width:0.62500000;stroke-linejoin:round;"
         d="M 8.7185878,4.0337352 L -2.2072895,0.016013256 L 8.7185884,-4.0017078 C 6.9730900,-1.6296469 6.9831476,1.6157441 8.7185878,4.0337352 z "
         transform="scale(0.3) rotate(180) translate(-2.3,0)" />
    </marker>
    <marker
       inkscape:stockid="Arrow1Send"
       orient="auto"
       refY="0.0"
       refX="0.0"
       id="Arrow1Send"
       style="overflow:visible;">
      <path
         id="path3884"
         d="M 0.0,0.0 L 5.0,-5.0 L -12.5,0.0 L 5.0,5.0 L 0.0,0.0 z "
         style="fill-rule:evenodd;stroke:#000000;stroke-width:1.0pt;"
         transform="scale(0.2) rotate(180) translate(6,0)" />
    </marker>
    <marker
       inkscape:stockid="Arrow1Lend"
       orient="auto"
       refY="0.0"
       refX="0.0"
       id="Arrow1Lend"
       style="overflow:visible;">
      <path
         id="path3872"
         d="M 0.0,0.0 L 5.0,-5.0 L -12.5,0.0 L 5.0,5.0 L 0.0,0.0 z "
         style="fill-rule:evenodd;stroke:#000000;stroke-width:1.0pt;"
         transform="scale(0.8) rotate(180) translate(12.5,0)" />
    </marker>
    <inkscape:path-effect
       effect="gears"
       id="path-effect3774"
       is_visible="true"
       teeth="6"
       phi="-1.2" />
    <inkscape:path-effect
       effect="bend_path"
       id="path-effect3772"
       is_visible="false"
       bendpath="m 95.790098,316.51174 c 144.429032,-206.42506 223.313032,-11.7428 339.548092,0"
       prop_scale="1.19"
       scale_y_rel="false"
       vertical="false"
       bendpath-nodetypes="cc" />
  </defs>
  <sodipodi:namedview
     pagecolor="#ffffff"
     bordercolor="#666666"
     borderopacity="1"
     objecttolerance="10"
     gridtolerance="10"
     guidetolerance="10"
     inkscape:pageopacity="0"
     inkscape:pageshadow="2"
     inkscape:window-width="1920"
     inkscape:window-height="1004"
     id="namedview11"
     showgrid="false"
     inkscape:zoom="0.5754386"
     inkscape:cx="903.9815"
     inkscape:cy="620.24185"
     inkscape:window-x="1680"
     inkscape:window-y="0"
     inkscape:window-maximized="1"
     inkscape:current-layer="svg2"
     inkscape:snap-object-midpoints="true"
     inkscape:snap-center="true"
     inkscape:snap-global="false">
    <inkscape:grid
       type="xygrid"
       id="grid2989" />
  </sodipodi:namedview>
  <metadata
     id="metadata2975">image/svg+xmlen<rdf:RDF>
  <cc:Work
     rdf:about="">
    <dc:format>image/svg+xml</dc:format>
    <dc:type
       rdf:resource="http://purl.org/dc/dcmitype/StillImage" />
    <dc:title />
  </cc:Work>
</rdf:RDF>
</metadata>
  <path
     style="color:#000000;fill:#930093;fill-opacity:1;fill-rule:nonzero;stroke:none;stroke-width:15.2511158;marker:none;visibility:visible;display:inline;overflow:visible;enable-background:accumulate"
     d="m 619.90625,410.59375 c -23.40822,-0.0947 -46.89739,15.7653 -49.78125,41.625 l 0,184.125 97.40625,0 0,-184.125 c -6.38858,-29.03805 -26.9707,-41.54146 -47.625,-41.625 z m -2.34375,29.1875 c 16.46897,0 29.84375,15.44337 29.84375,22.75 0,7.30667 -13.37478,13.21875 -29.84375,13.21875 -16.46897,0 -29.8125,-5.91208 -29.8125,-13.21875 0,-7.30663 13.34353,-22.75 29.8125,-22.75 z m 3.8125,47.875 18.1875,0 -24.84375,51.40625 37.59375,0 -35.44207,65.35595 25.13414,-2.88872 -43.56402,30.18673 -16.91387,-39.74466 19.6875,10.99161 25.16082,-48.49466 -35.71875,0 z"
     id="rect3015"
     inkscape:connector-curvature="0"
     sodipodi:nodetypes="sccccsssssscccccccccccc" />
  <path
     style="fill:none;stroke:#930093;stroke-width:15.14608192;stroke-linecap:round;stroke-linejoin:round;stroke-miterlimit:4;stroke-opacity:1;stroke-dasharray:none"
     d="m 577.71477,606.46784 c 0,0 -32.60353,-6.68 -79.31298,15.10764 -34.05669,15.88574 -119.86447,45.64239 -70.92774,-10.38202 13.55523,-15.51846 25.2714,-21.03107 25.12045,-53.80636"
     id="path3801"
     inkscape:connector-curvature="0"
     sodipodi:nodetypes="cssc" />
  <path
     style="color:#000000;fill:#930093;fill-opacity:1;fill-rule:nonzero;stroke:none;stroke-width:15.2511158;marker:none;visibility:visible;display:inline;overflow:visible;enable-background:accumulate"
     d="m 466.76029,560.91497 -27.93524,-0.68232 c -20.86583,-1.32174 -26.75247,-5.9483 -37.29088,-11.07858 l -0.59501,-16.95686 -8.36139,-4.21157 -0.11985,-47.24531 c 0.95513,-3.95729 1.85667,-4.6313 5.43804,-6.01879 l 110.42735,0 c 4.80036,-0.31634 6.96679,3.04583 6.88375,7.49409 l -0.26057,47.17364 -8.04997,4.4975 -0.0555,17.69295 c -11.16052,8.02751 -22.66347,7.46073 -40.08063,9.33525 z"
     id="rect3803"
     inkscape:connector-curvature="0"
     sodipodi:nodetypes="cccccccccccccc" />
  <path
     style="fill:none;stroke:#930093;stroke-width:24.25154877;stroke-linecap:round;stroke-linejoin:miter;stroke-miterlimit:4;stroke-opacity:1;stroke-dasharray:none"
     d="m 488.81113,494.18927 0,-71.71473"
     id="path3806"
     inkscape:connector-curvature="0"
     sodipodi:nodetypes="cc" />
  <path
     style="fill:none;stroke:#930093;stroke-width:24.25154877;stroke-linecap:round;stroke-linejoin:miter;stroke-miterlimit:4;stroke-opacity:1;stroke-dasharray:none"
     d="m 419.88409,492.45416 0,-71.71473"
     id="path3806-9"
     inkscape:connector-curvature="0"
     sodipodi:nodetypes="cc" />
</svg>

<svg width="1060" height="1060" viewBox="0 0 1060 1060" fill="none" xmlns="http://www.w3.org/2000/svg">
<path d="M619.906 410.594C596.498 410.499 573.009 426.359 570.125 452.219V636.344H667.531V452.219C661.143 423.181 640.561 410.677 619.906 410.594ZM617.562 439.781C634.031 439.781 647.406 455.225 647.406 462.531C647.406 469.838 634.031 475.75 617.562 475.75C601.094 475.75 587.75 469.838 587.75 462.531C587.75 455.225 601.094 439.781 617.562 439.781ZM621.375 487.656H639.562L614.719 539.062H652.312L616.87 604.418L642.005 601.53L598.441 631.716L581.527 591.972L601.214 602.963L626.375 554.469H590.656L621.375 487.656Z" fill="#930093"/>
<path d="M577.715 606.468C577.715 606.468 545.112 599.788 498.402 621.576C464.345 637.461 378.538 667.218 427.474 611.194C441.03 595.675 452.746 590.162 452.595 557.387" stroke="#930093" stroke-width="15.1461" stroke-linecap="round" stroke-linejoin="round"/>
<path d="M466.76 560.915L438.825 560.233C417.959 558.911 412.073 554.285 401.534 549.154L400.939 532.197L392.578 527.986L392.458 480.741C393.413 476.783 394.315 476.109 397.896 474.722H508.323C513.124 474.405 515.29 477.768 515.207 482.216L514.947 529.39L506.897 533.887L506.841 551.58C495.681 559.607 484.178 559.041 466.76 560.915H466.76Z" fill="#930093"/>
<path d="M488.812 494.189V422.475" stroke="#930093" stroke-width="24.2515" stroke-linecap="round"/>
<path d="M419.884 492.454V420.739" stroke="#930093" stroke-width="24.2515" stroke-linecap="round"/>
</svg>
